svg/u1f385_1f3fd.svg

<svg viewBox="0 0 128 128" xmlns="http://www.w3.org/2000/svg">
  <linearGradient id="SVGID_1_" gradientTransform="matrix(1 0 0 -1 0 130)" gradientUnits="userSpaceOnUse" x1="27.61" x2="105.4818" y1="97.1075" y2="97.1075">
    <stop offset="0" stop-color="#F44336"/>
    <stop offset="0.3592" stop-color="#E73B32"/>
    <stop offset="1" stop-color="#C62828"/>
  </linearGradient>
  <path d="M90.92,11.55C85.56,7.07,77.56,4.3,63.59,4.3c-25.64,0-35.98,16.53-35.98,36.87 c0,0.08,2.42,0.25,2.91,0.29c0.06,0,0.11,0.01,0.17,0.01L64,32c0,0,30.06,9.38,30.31,10.22l5.69,17.51 c0.31,1.04,1.26,1.75,2.35,1.75c1.29,0,2.36-1,2.45-2.29c0.18-2.87,0.48-8.01,0.62-12.9C105.62,38.86,106.28,24.38,90.92,11.55z" fill="url(#SVGID_1_)"/>
  <ellipse cx="101.91" cy="63.86" fill="#E0E0E0" rx="6.75" ry="6.75"/>
  <g id="robe">
    <linearGradient id="SVGID_2_" gradientTransform="matrix(1 0 0 -1 0 130)" gradientUnits="userSpaceOnUse" x1="64" x2="64" y1="33.1589" y2="4.6815">
      <stop offset="0" stop-color="#F44336"/>
      <stop offset="0.3592" stop-color="#E73B32"/>
      <stop offset="1" stop-color="#C62828"/>
    </linearGradient>
    <path d="M64.14,95.97H64c-25.65,0.03-52,7.1-52,24.99V124h1.45h1.44h98.22h1.46H116v-3.04 C116,104.1,89.9,95.97,64.14,95.97z" fill="url(#SVGID_2_)"/>
    <polygon fill="#FFFFFF" points="55.33,105.67 55.33,124 56.83,124 58.33,124 69.67,124 71.16,124 72.66,124 72.66,105.67 "/>
  </g>
  <path id="ears_1_" d="M90.76,47.55H37.19c-5.78,0-10.5,5.17-10.5,11.5s4.73,11.5,10.5,11.5h53.57 c5.78,0,10.5-5.18,10.5-11.5S96.54,47.55,90.76,47.55z" fill="#99674F"/>
  <path id="head" d="M35.75,34.96c-2.32,6.06-3.55,12.89-3.55,20.05c0,11.73,3.39,21.52,9.81,28.3 c5.65,5.97,13.31,9.26,21.58,9.26c8.26,0,15.93-3.29,21.58-9.26c6.42-6.78,9.81-16.57,9.81-28.3c0-7.17-1.24-13.99-3.55-20.05H35.75 z" fill="#BA8D68"/>
  <g id="eyes">
    <ellipse cx="47.68" cy="59.26" fill="#49362E" rx="4.83" ry="5.01"/>
    <ellipse cx="80.32" cy="59.26" fill="#49362E" rx="4.83" ry="5.01"/>
  </g>
  <g id="eyebrows_x5F_white">
    <path d="M87.41,50.44L87.41,50.44c0-0.01-2.25-3.67-7.48-3.67c-5.23,0-7.49,3.66-7.49,3.66l0,0.01 c-0.18,0.26-0.3,0.58-0.3,0.93c0,0.88,0.69,1.6,1.55,1.6c0.18,0,0.61-0.13,0.65-0.15c3.13-1.33,5.59-1.34,5.59-1.34 s2.43,0.01,5.57,1.34c0.04,0.02,0.47,0.15,0.65,0.15c0.86,0,1.55-0.72,1.55-1.6C87.71,51.03,87.6,50.71,87.41,50.44z" fill="#F5F5F5"/>
    <path d="M55.53,50.44L55.53,50.44c0.01-0.01-2.25-3.67-7.48-3.67s-7.49,3.66-7.49,3.66l0.01,0.01 c-0.18,0.26-0.3,0.58-0.3,0.93c0,0.88,0.69,1.6,1.55,1.6c0.18,0,0.61-0.13,0.65-0.15c3.13-1.33,5.59-1.34,5.59-1.34 s2.44,0.01,5.57,1.34c0.04,0.02,0.47,0.15,0.65,0.15c0.86,0,1.55-0.72,1.55-1.6C55.83,51.03,55.72,50.71,55.53,50.44z" fill="#F5F5F5"/>
  </g>
  <g>
    <linearGradient id="SVGID_3_" gradientUnits="userSpaceOnUse" x1="63.999" x2="63.999" y1="100.5647" y2="20.8823">
      <stop offset="0.4878" stop-color="#F5F5F5"/>
      <stop offset="0.8314" stop-color="#BDBDBD"/>
    </linearGradient>
    <path d="M102.36,73.51c-1.74-5.25-3.83-16.73-3.66-21.6c0.22-6.4,0.24-10.71,0.2-13.78 c-0.05-3.7-3.07-6.67-6.78-6.67c0,0-0.67,0-0.69,0v6.51c0.7,3.34,0.63,9.44,0.63,17.24c0,12.46-3.52,18.85-11.82,18.85 c-8.67,0-10.15-2.55-16.59-2.55c-6.45,0-7.98,2.55-16.37,2.55c-7.57,0-11.5-8.77-11.5-19.17c0-4.57-0.2-9.04-0.19-12.58h0V31.47 c-3.66,0.1-6.6,3.08-6.6,6.77c0.01,3.06,0.08,7.35,0.35,13.67c0.21,4.99-1.97,16.71-3.71,21.98c-2.64,7.96-2.22,17.72,1.49,25.24 c3.32,6.73,19.39,17.45,28.87,22.72c3.62,2.01,12.05,2.03,15.69,0.06c9.33-5.06,24.9-15.22,28.48-21.63 C104.54,92.45,105.18,82.04,102.36,73.51z" fill="url(#SVGID_3_)"/>
    <radialGradient id="SVGID_4_" cx="64.2726" cy="75.4103" gradientUnits="userSpaceOnUse" r="48.5567">
      <stop offset="0.7063" stop-color="#FFFFFF" stop-opacity="0"/>
      <stop offset="1" stop-color="#BDBDBD"/>
    </radialGradient>
    <path d="M102.36,73.51c-1.74-5.25-3.83-16.72-3.67-21.6c0.23-6.4,0.24-10.71,0.2-13.77 c-0.05-3.71-3.07-6.67-6.77-6.67h-0.06v23.75c0,12.46-3.52,18.84-11.81,18.84c-8.68,0-10.16-2.54-16.6-2.54 c-6.45,0-7.98,2.54-16.37,2.54c-7.57,0-11.51-8.76-11.51-19.17c0-5.32-0.27-10.51-0.16-14.25h-0.03v-9.16 c-3.66,0.09-6.6,3.08-6.59,6.77c0,3.06,0.07,7.36,0.34,13.67c0.22,4.99-1.96,16.72-3.71,21.98c-2.64,7.97-2.22,17.72,1.49,25.24 c3.33,6.74,19.39,17.45,28.87,22.72c3.62,2.02,12.05,2.04,15.69,0.06c9.33-5.06,24.9-15.22,28.49-21.63 C104.54,92.45,105.18,82.04,102.36,73.51z" fill="url(#SVGID_4_)"/>
  </g>
  <path id="mouth" d="M72.23,76.15c-3.13,1.86-13.37,1.86-16.5,0c-1.79-1.07-3.63,0.56-2.88,2.2 c0.73,1.6,6.32,5.32,11.16,5.32s10.35-3.72,11.08-5.32C75.84,76.72,74.03,75.08,72.23,76.15z" fill="#5D4037"/>
  <path id="nose" d="M67.79,68.38c-0.1-0.04-0.21-0.07-0.32-0.08h-6.94c-0.11,0.01-0.21,0.04-0.32,0.08 c-0.63,0.25-0.98,0.91-0.68,1.6s1.68,2.64,4.46,2.64c2.79,0,4.17-1.95,4.46-2.64C68.76,69.29,68.42,68.64,67.79,68.38z" fill="#99674F"/>
  <path d="M97.98,32.14C97.03,31.44,83,23.43,64,23.43c-19,0.01-33.03,8.01-33.98,8.72 c-3.91,2.91-5.06,6-4.47,10.86c0.34,2.85,2.97,3.93,4.66,3.34c0,0,16.26-3.93,33.78-3.94c17.53,0,33.78,3.94,33.78,3.94 c1.7,0.59,4.32-0.49,4.66-3.34C103.03,38.14,101.88,35.05,97.98,32.14z" fill="#F5F5F5"/>
</svg>

<svg viewBox="0 0 128 128" xmlns="http://www.w3.org/2000/svg">
  <defs>
    <linearGradient id="SVGID_1_" gradientTransform="matrix(1 0 0 -1 0 0)" gradientUnits="userSpaceOnUse" x1="27.61" x2="105.4818" y1="-32.8925" y2="-32.8925">
      <stop offset="0" stop-color="#F44336"/>
      <stop offset="0.3592" stop-color="#E73B32"/>
      <stop offset="1" stop-color="#C62828"/>
    </linearGradient>
    <linearGradient id="SVGID_2_" gradientTransform="matrix(1 0 0 -1 0 0)" gradientUnits="userSpaceOnUse" x1="64" x2="64" y1="-96.8411" y2="-125.3185">
      <stop offset="0" stop-color="#F44336"/>
      <stop offset="0.3592" stop-color="#E73B32"/>
      <stop offset="1" stop-color="#C62828"/>
    </linearGradient>
    <linearGradient id="SVGID_3_" gradientUnits="userSpaceOnUse" x1="63.999" x2="63.999" y1="100.5647" y2="20.8823">
      <stop offset="0.4878" stop-color="#F5F5F5"/>
      <stop offset="0.8314" stop-color="#BDBDBD"/>
    </linearGradient>
    <radialGradient id="SVGID_4_" cx="64.2726" cy="75.4103" gradientUnits="userSpaceOnUse" r="48.5567">
      <stop offset="0.7063" stop-color="#FFFFFF" stop-opacity="0"/>
      <stop offset="1" stop-color="#BDBDBD"/>
    </radialGradient>
  </defs>
  <path d="M90.92,11.55 C85.56,7.07 77.56,4.3 63.59,4.3 C37.95,4.3 27.61,20.83 27.61,41.17 C27.61,41.25 30.03,41.42 30.52,41.46 C30.58,41.46 30.63,41.47 30.69,41.47 L64,32 C64,32 94.06,41.38 94.31,42.22 L100,59.73 C100.31,60.77 101.26,61.48 102.35,61.48 C103.64,61.48 104.71,60.48 104.8,59.19 C104.98,56.32 105.28,51.18 105.42,46.29 C105.62,38.86 106.28,24.38 90.92,11.55 Z" fill="url(#SVGID_1_)"/>
  <path d="M108.66,63.86 A6.75 6.75 0 1 1 95.16,63.86 A6.75 6.75 0 1 1 108.66,63.86 Z" fill="#E0E0E0"/>
  <path d="M64.14,95.97 L64,95.97 C38.35,96 12,103.07 12,120.96 L12,124 L13.45,124 L14.89,124 L113.11,124 L114.57,124 L116,124 L116,120.96 C116,104.1 89.9,95.97 64.14,95.97 Z" fill="url(#SVGID_2_)"/>
  <path d="M55.33,105.67 L55.33,124 L56.83,124 L58.33,124 L69.67,124 L71.16,124 L72.66,124 L72.66,105.67 Z" fill="#FFFFFF"/>
  <path id="ears_1_" d="M90.76,47.55 L37.19,47.55 C31.41,47.55 26.69,52.72 26.69,59.05 C26.69,65.38 31.42,70.55 37.19,70.55 L90.76,70.55 C96.54,70.55 101.26,65.37 101.26,59.05 C101.26,52.73 96.54,47.55 90.76,47.55 Z" fill="#99674F"/>
  <path id="head" d="M35.75,34.96 C33.43,41.02 32.2,47.85 32.2,55.01 C32.2,66.74 35.59,76.53 42.01,83.31 C47.66,89.28 55.32,92.57 63.59,92.57 C71.85,92.57 79.52,89.28 85.17,83.31 C91.59,76.53 94.98,66.74 94.98,55.01 C94.98,47.84 93.74,41.02 91.43,34.96 L35.75,34.96 Z" fill="#BA8D68"/>
  <path d="M52.51,59.26 A4.83 5.01 0 1 1 42.85,59.26 A4.83 5.01 0 1 1 52.51,59.26 Z" fill="#49362E"/>
  <path d="M85.15,59.26 A4.83 5.01 0 1 1 75.49,59.26 A4.83 5.01 0 1 1 85.15,59.26 Z" fill="#49362E"/>
  <path d="M87.41,50.44 L87.41,50.44 C87.41,50.43 85.16,46.77 79.93,46.77 C74.7,46.77 72.44,50.43 72.44,50.43 L72.44,50.44 C72.26,50.7 72.14,51.02 72.14,51.37 C72.14,52.25 72.83,52.97 73.69,52.97 C73.87,52.97 74.3,52.84 74.34,52.82 C77.47,51.49 79.93,51.48 79.93,51.48 C79.93,51.48 82.36,51.49 85.5,52.82 C85.54,52.84 85.97,52.97 86.15,52.97 C87.01,52.97 87.7,52.25 87.7,51.37 C87.71,51.03 87.6,50.71 87.41,50.44 Z" fill="#F5F5F5"/>
  <path d="M55.53,50.44 L55.53,50.44 C55.54,50.43 53.28,46.77 48.05,46.77 C42.82,46.77 40.56,50.43 40.56,50.43 L40.57,50.44 C40.39,50.7 40.27,51.02 40.27,51.37 C40.27,52.25 40.96,52.97 41.82,52.97 C42,52.97 42.43,52.84 42.47,52.82 C45.6,51.49 48.06,51.48 48.06,51.48 C48.06,51.48 50.5,51.49 53.63,52.82 C53.67,52.84 54.1,52.97 54.28,52.97 C55.14,52.97 55.83,52.25 55.83,51.37 C55.83,51.03 55.72,50.71 55.53,50.44 Z" fill="#F5F5F5"/>
  <path d="M102.36,73.51 C100.62,68.26 98.53,56.78 98.7,51.91 C98.92,45.51 98.94,41.2 98.9,38.13 C98.85,34.43 95.83,31.46 92.12,31.46 C92.12,31.46 91.45,31.46 91.43,31.46 L91.43,37.97 C92.13,41.31 92.06,47.41 92.06,55.21 C92.06,67.67 88.54,74.06 80.24,74.06 C71.57,74.06 70.09,71.51 63.65,71.51 C57.2,71.51 55.67,74.06 47.28,74.06 C39.71,74.06 35.78,65.29 35.78,54.89 C35.78,50.32 35.58,45.85 35.59,42.31 L35.59,42.31 L35.59,31.47 C31.93,31.57 28.99,34.55 28.99,38.24 C29,41.3 29.07,45.59 29.34,51.91 C29.55,56.9 27.37,68.62 25.63,73.89 C22.99,81.85 23.41,91.61 27.12,99.13 C30.44,105.86 46.51,116.58 55.99,121.85 C59.61,123.86 68.04,123.88 71.68,121.91 C81.01,116.85 96.58,106.69 100.16,100.28 C104.54,92.45 105.18,82.04 102.36,73.51 Z" fill="url(#SVGID_3_)"/>
  <path d="M102.36,73.51 C100.62,68.26 98.53,56.79 98.69,51.91 C98.92,45.51 98.93,41.2 98.89,38.14 C98.84,34.43 95.82,31.47 92.12,31.47 L92.06,31.47 L92.06,55.22 C92.06,67.68 88.54,74.06 80.25,74.06 C71.57,74.06 70.09,71.52 63.65,71.52 C57.2,71.52 55.67,74.06 47.28,74.06 C39.71,74.06 35.77,65.3 35.77,54.89 C35.77,49.57 35.5,44.38 35.61,40.64 L35.58,40.64 L35.58,31.48 C31.92,31.57 28.98,34.56 28.99,38.25 C28.99,41.31 29.06,45.61 29.33,51.92 C29.55,56.91 27.37,68.64 25.62,73.9 C22.98,81.87 23.4,91.62 27.11,99.14 C30.44,105.88 46.5,116.59 55.98,121.86 C59.6,123.88 68.03,123.9 71.67,121.92 C81,116.86 96.57,106.7 100.16,100.29 C104.54,92.45 105.18,82.04 102.36,73.51 Z" fill="url(#SVGID_4_)"/>
  <path id="mouth" d="M72.23,76.15 C69.1,78.01 58.86,78.01 55.73,76.15 C53.94,75.08 52.1,76.71 52.85,78.35 C53.58,79.95 59.17,83.67 64.01,83.67 C68.85,83.67 74.36,79.95 75.09,78.35 C75.84,76.72 74.03,75.08 72.23,76.15 Z" fill="#5D4037"/>
  <path id="nose" d="M67.79,68.38 C67.69,68.34 67.58,68.31 67.47,68.3 L60.53,68.3 C60.42,68.31 60.32,68.34 60.21,68.38 C59.58,68.63 59.23,69.29 59.53,69.98 C59.83,70.67 61.21,72.62 63.99,72.62 C66.78,72.62 68.16,70.67 68.45,69.98 C68.76,69.29 68.42,68.64 67.79,68.38 Z" fill="#99674F"/>
  <path d="M97.98,32.14 C97.03,31.44 83,23.43 64,23.43 C45,23.44 30.97,31.44 30.02,32.15 C26.11,35.06 24.96,38.15 25.55,43.01 C25.89,45.86 28.52,46.94 30.21,46.35 C30.21,46.35 46.47,42.42 63.99,42.41 C81.52,42.41 97.77,46.35 97.77,46.35 C99.47,46.94 102.09,45.86 102.43,43.01 C103.03,38.14 101.88,35.05 97.98,32.14 Z" fill="#F5F5F5"/>
</svg>
